react/assets/icons/coffee.svg

<svg width="48px" height="48px" viewBox="0 0 24 24" fill="none" xmlns="http://www.w3.org/2000/svg" aria-labelledby="coffeeIconTitle" stroke-linecap="square" stroke-linejoin="miter"> <title id="coffeeIconTitle">Coffee</title> <path d="M5 12H17V17C17 19.7614 14.7614 22 12 22H10C7.23858 22 5 19.7614 5 17V12Z"/> <path d="M17 13H19C20.1046 13 21 13.8954 21 15V15C21 16.1046 20.1046 17 19 17H17"/> <path d="M9 9C9 9 8 8.5 8 7C8 5.5 9 5 9 5"/> <path d="M12 3C12 3 13 3.5 13 5C13 6.5 12 7 12 7"/> </svg>

<svg width="48" height="48" viewBox="0 0 24 24" fill="none" xmlns="http://www.w3.org/2000/svg" aria-labelledby="coffeeIconTitle" stroke-linecap="square"><path d="M5 12h12v5a5 5 0 01-5 5h-2a5 5 0 01-5-5v-5zM17 13h2a2 2 0 110 4h-2M9 9s-1-.5-1-2 1-2 1-2M12 3s1 .5 1 2-1 2-1 2"/></svg>
